packages/core/src/svgs/tokens/branded/AXEL.svg

<svg width="24" height="24" viewBox="0 0 24 24" fill="none" xmlns="http://www.w3.org/2000/svg">
<path d="M12.7784 2.47631C12.7058 2.33304 12.5949 2.21268 12.4581 2.1286C12.3213 2.04452 12.1637 2 12.0031 2C11.8425 2 11.6851 2.04452 11.5483 2.1286C11.4115 2.21268 11.3006 2.33304 11.228 2.47631L6.85812 11.2097L11.0092 13.3916L14.6602 6.23977L12.7784 2.47631ZM15.4916 7.89643L12.3283 14.0855L20.8116 18.5366L15.4916 7.89643ZM21.9432 20.8247L11.6406 15.4108L8.28349 22H21.1305C21.2704 21.9984 21.408 21.9634 21.5317 21.8977C21.6552 21.8321 21.7613 21.7377 21.8409 21.6226C21.9205 21.5074 21.9713 21.3749 21.9891 21.2361C22.0069 21.0972 21.9911 20.9562 21.9432 20.8247ZM6.60807 22L10.3278 14.7231L6.18921 12.5476L2.09443 20.7372C2.02887 20.8698 1.99804 21.017 2.00483 21.1649C2.01161 21.3128 2.05579 21.4565 2.13324 21.5827C2.21066 21.7088 2.31884 21.8133 2.44763 21.8862C2.57642 21.9593 2.72162 21.9984 2.86963 22H6.60807Z" fill="url(#paint0_linear_364_6244)"/>
<defs>
<linearGradient id="paint0_linear_364_6244" x1="7.50204" y1="11.9974" x2="21.3931" y2="19.6869" gradientUnits="userSpaceOnUse">
<stop stop-color="#0642DE"/>
<stop offset="1" stop-color="#0F36AF"/>
</linearGradient>
</defs>
</svg>

<svg xmlns="http://www.w3.org/2000/svg" width="24" height="24" fill="none" viewBox="0 0 24 24">
    <path fill="url(#AXEL__a)" d="M12.778 2.476a.87.87 0 0 0-1.55 0l-4.37 8.734 4.151 2.182L14.66 6.24zm2.714 5.42-3.164 6.19 8.484 4.45zm6.451 12.929L11.641 15.41 8.283 22h12.848a.877.877 0 0 0 .812-1.175M6.608 22l3.72-7.277-4.139-2.175-4.095 8.19A.875.875 0 0 0 2.87 22z"/>
    <defs>
        <linearGradient id="AXEL__a" x1="7.502" x2="21.393" y1="11.997" y2="19.687" gradientUnits="userSpaceOnUse">
            <stop stop-color="#0642DE"/>
            <stop offset="1" stop-color="#0F36AF"/>
        </linearGradient>
    </defs>
</svg>
